X: 7262
T: Clare's
R: reel
M: 4/4
K: Bminor
F3B f3B|GBef edcd|e2ef edcd|effe dcBA|
F3B f3B|GBef edcd|e2ef edcd|aggf feed:|
b3B FBdf|g3B GBef|e3f edcd|effe dcBA|
b3B FBdf|g3B GBef|e3f edcd|aggf feed:|

